X:1
T:Vaggvisa från Kentucky
T:Vaggvisa från Kentucky
T:Rich. Henry Buck (Ernst Högman)
T:Adam Geibel
C:Adam Geibel
%%score [ 1 2 3 4 ]
L:1/8
Q:1/4=92
M:4/4
K:Bb
V:1 treble-8 nm="T1"
V:2 treble-8 nm="T2"
V:3 bass nm="B1"
V:4 bass nm="B2"
V:1
"^Andante" z8 | z8 |!mf! d3 d d d3 | e6 z2 | z8 | z8 | =e3 e e e3 | (f4 _e4) | %8
w: ||Sov, Ken- tu- cky-|tös!|||Sov, Ken- tu- cky-|tös! _|
w: ||||||||
 d3/2 d/ d3/2 d/ d3/2 d/ d3/2 d/ | d3/2 d/ d3/2 d/ d3 z | d3/2 d/ d3/2 d/ d3/2 d/ d3/2 d/ | %11
w: Ö- ver ber- gen sti- ger run- da|må- nen stor och klar.|Få- gel- mor i bo't har sagt god-|
w: Bak- om dör- ren står en li- ten|tom- te tyst på vakt.||
 e3/2 e/ e3/2 e/ e3 z |!p! c3/2 c/ c3/2 c/ c c z2 | c3/2 c/ c3/2 c/ c c z2 | %14
w: natt åt få- gel- far.|Stjär- nor åt dig ni- cka,|min Ken- tu- cky- fli- cka.|
w: |||
"^cresc. rit." c3 c c2 =e2 | !fermata!f8 ||"^REFRÂNG"!mf!"^a tempo" f6 B2 | %17
w: Sov, du lil- la,|sov!|Dröm så|
w: |||
 d3/2 ^c/ d3/2 c/ d2 z2 | d3/2 d/ d3/2 d/ d3/2 d/ d2 | d3/2 d/ d3/2 d/ d2 z2 | f6 f2 | %21
w: ljuvt, la, la, la, la,|dröm så ljuvt, Ken- tu- cky- tös,|här har du en hamn.|Dröm så|
w: ||||
 f3/2 d/ e3/2 d/ e2 z2 | e3/2 e/ e3/2 e/ e3/2 e/ e2 | e3/2 e/ e3/2 B/ d2 z2 | (_d8 | =d8) | (_d8 | %27
w: ljuvt, la, la, la, la,|tryggt och varmt du vi- la får;|i din mo- ders famn.|c.b.ch.|||
w: ||||||
 =d8) |"^rall,"!p! d4 c4 | d4 e4 | d8- | d6 z2 |: (d8 | e8) | (d4 B4 | A8) | (d8 | e8) | (d4 e4 | %39
w: |Sov, du|lil- la,|sov.|_|c.b.ch.|||||||
w: ||||||||||||
 d6) z2 :| %40
w: |
w: |
V:2
 z8 | z8 |!mf! B3 B B B3 | c6 z2 | z8 | z8 | c3 c c c3 | c8 | B3/2 B/ B3/2 B/ B3/2 B/ B3/2 B/ | %9
w: ||Sov, Ken- tu- cky-|tös!|||Sov, Ken- tu- cky-|tös!|Ö- ver ber- gen sti- ger run- da|
w: ||||||||Bak- om dör- ren står en li- ten|
 B3/2 B/ B3/2 B/ B3 z | B3/2 B/ B3/2 B/ B3/2 B/ B3/2 B/ | A3/2 A/ A3/2 A/ A3 z | %12
w: må- nen stor och klar.|Få- gel- mor i bo't har sagt god-|natt åt få- gel- far.|
w: tom- te tyst på vakt.|||
!p! A3/2 A/ A3/2 A/ B B z2 | A3/2 A/ A3/2 A/ B B z2 |"^cresc. rit." A3 B c2 c2 | !fermata!A8 || %16
w: Stjär- nor åt dig ni- cka,|min Ken- tu- cky- fli- cka.|Sov, du lil- la,|sov!|
w: ||||
!mf! B6 F2 | B3/2 A/ B3/2 A/ B2 z2 | B3/2 B/ B3/2 B/ B3/2 B/ B2 | B3/2 B/ B3/2 B/ B2 z2 | A6 e2 | %21
w: Dröm så|ljuvt, la, la, la, la,|dröm så ljuvt, Ken- tu- cky- tös,|här har du en hamn.|Dröm så|
w: |||||
 e3/2 =B/ c3/2 B/ c2 z2 | c3/2 c/ c3/2 c/ c3/2 c/ c2 | B3/2 B/ B3/2 F/ B2 z2 | (B8 | F8) | (B8 | %27
w: ljuvt, la, la, la, la,|tryggt och varmt du vi- la får;|i din mo- ders famn.|c.b.ch.|||
w: ||||||
 F8) |"^rall,"!p! B4 A4 | B4 c4 | B8- | B6 z2 |: %32
w: |Sov, du|lil- la,|sov.|_|
w: |||||
"^(Banjo imitation)" F3/2 B/ d3/2 B/ F3/2 B/ d3/2 B/ | G3/2 B/ e3/2 B/ G3/2 B/ e3/2 B/ | %34
w: Ban- ka, ban- ka, ban- ka, ban- ka,|ban- ka, ban- ka, ban- ka, ban- ka,|
w: ||
 F3/2 B/ d3/2 B/ F3/2 B/ d3/2 B/ | F3/2 A/ c3/2 A/ F3/2 A/ c3/2 A/ | %36
w: ban- ka, ban- ka, ban- ka, ban- ka,|ban- ka, ban- ka, ban- ka, ban- ka,|
w: ||
 F3/2 B/ d3/2 B/ F3/2 B/ d3/2 B/ | G3/2 B/ e3/2 B/ G3/2 B/ e3/2 B/ | %38
w: ban- ka, ban- ka, ban- ka, ban- ka,|ban- ka, ban- ka, ban- ka, ban- ka,|
w: ||
 F3/2 B/ d3/2 B/ F3/2 A/ c3/2 A/ | B3/2 B/ F3/2 G/ F2 z2 :| %40
w: ban- ka, ban- ka, ban- ka, ban- ka,|ban- ka, ban- ka, bank.|
w: ||
V:3
!mf! F,3/2 F,/ F,3/2 F,/ G,3/2 G,/ G,3/2 D,/ | F,3/2 F,/ F,3/2 D,/ G,4 | F,3 D, F, B,3 | A,6 z2 | %4
w: 1.Fli- tigt bi med ho- nung har vänt|hem i- från sin färd.|Sov, Ken- tu- cky-|tös!|
w: 2.Pap- pa i den mör- ka sko- gen|ri- der på sin häst.|||
 G,3/2 G,/ G,3/2 G,/ A,3/2 A,/ A,3/2 E,/ | G,3/2 G,/ G,3/2 E,/ A,4 | G,3 G, G, B,3 | A,8 | %8
w: Tro- fast sit- ter nu John Blund in-|vid din hu- vud- gärd.|Sov, Ken- tu- cky-|tös!|
w: Lil- lan får sin fru- kost, när hon|va- ken blir här- näst.|||
 B,3/2 B,/ B,3/2 D,/ A,3/2 A,/ A,3/2 D,/ | G,3/2 G,/ G,3/2 D,/ F,3 z | %10
w: Ö- ver ber- gen sti- ger run- da|må- nen stor och klar.|
w: Bak- om dör- ren står en li- ten|tom- te tyst på vakt.|
 B,3/2 B,/ B,3/2 D,/ A,3/2 A,/ A,3/2 D,/ | G,3/2 G,/ G,3/2 _G,/ F,3 z | %12
w: Få- gel- mor i bo't har sagt god-|natt åt få- gel- far.|
w: ||
!p! F,3/2 F,/ F,3/2 F,/ _G, G, z2 | F,3/2 F,/ F,3/2 F,/ _G, G, z2 |"^cresc. rit." F,3 =G, A,2 B,2 | %15
w: Stjär- nor åt dig ni- cka,|min Ken- tu- cky- fli- cka.|Sov, du lil- la,|
w: |||
 (C6 !fermata!^C2) ||!mf! D6 D,2 | F,6 z2 | F,3/2 F,/ F,3/2 D,/ G,3/2 G,/ G,2 | %19
w: sov! _|Dröm så|ljuvt,|dröm så ljuvt, Ken- tu- cky- tös,|
w: ||||
 F,3/2 F,/ F,3/2 D,/ G,2 z2 | E6 G,2 | A,6 z2 | G,3/2 G,/ G,3/2 G,/ A,3/2 A,/ A,2 | %23
w: här har du en hamn.|Dröm så|ljuvt,|tryggt och varmt du vi- la får;|
w: ||||
 G,3/2 G,/ G,3/2 D,/ F,2 z2 | (B,4 _G,4 | F,4 B,,4) | (B,4 _G,4 | F,4 B,,4) |"^rall,"!p! F,4 F,4 | %29
w: i din mo- ders famn.|c.b.ch. *||||Sov, du|
w: ||||||
 F,4 F,4 | F,8- | F,6 z2 |: (F,8 | G,8) | (F,4 D,4 | C,8) | (F,8 | G,8) | (F,4 A,4 | B,6) z2 :| %40
w: lil- la,|sov.|_|c.b.ch.||||||||
w: |||||||||||
V:4
 z8 | z8 |!mf! B,,3 B,, B,, B,,3 | F,6 z2 | z8 | z8 | C,3 C, C, C,3 | F,8 | %8
w: ||Sov, Ken- tu- cky-|tös!|||Sov, Ken- tu- cky-|tös!|
w: ||||||||
 B,,3/2 B,,/ B,,3/2 B,,/ B,,3/2 B,,/ B,,3/2 B,,/ | B,,3/2 B,,/ B,,3/2 B,,/ B,,3 z | %10
w: Ö- ver ber- gen sti- ger run- da|må- nen stor och klar.|
w: Bak- om dör- ren står en li- ten|tom- te tyst på vakt.|
 B,,3/2 B,,/ B,,3/2 B,,/ B,,3/2 B,,/ B,,3/2 B,,/ | C,3/2 C,/ C,3/2 C,/ F,,3 z | %12
w: Få- gel- mor i bo't har sagt god-|natt åt få- gel- far.|
w: ||
!p! F,3/2 F,/ F,3/2 F,/ E, E, z2 | F,3/2 F,/ F,3/2 F,/ E, E, z2 |"^cresc. rit." F,3 F, C,2 C,2 | %15
w: Stjär- nor åt dig ni- cka,|min Ken- tu- cky- fli- cka.|Sov, du lil- la,|
w: |||
 !fermata![F,,F,]8 ||!mf! B,,6 B,,2 | B,,6 z2 | B,,3/2 B,,/ B,,3/2 B,,/ B,,3/2 B,,/ B,,2 | %19
w: sov!|Dröm så|ljuvt,|dröm så ljuvt, Ken- tu- cky- tös,|
w: ||||
 B,,3/2 B,,/ B,,3/2 B,,/ B,,2 z2 | F,,6 F,,2 | F,,6 z2 | F,,3/2 F,,/ F,,3/2 F,,/ F,,3/2 F,,/ F,,2 | %23
w: här har du en hamn.|Dröm så|ljuvt,|tryggt och varmt du vi- la får;|
w: ||||
 B,,3/2 B,,/ B,,3/2 B,,/ B,,2 z2 | (([_G,,_G,]8 | B,,8)) | (([_G,,_G,]8 | B,,8)) | %28
w: i din mo- ders famn.|c.b.ch.||||
w: |||||
"^rall,"!p! F,,4 F,,4 | F,,4 F,,4 | B,,8- | B,,6 z2 |: (B,,8 | E,8) | (B,,8 | F,,8) | (B,,8 | %37
w: Sov, du|lil- la,|sov.|_|c.b.ch.|||||
w: |||||||||
 E,8) | (F,4 F,,4 | B,,6) z2 :| %40
w: |||
w: |||

